X:7
T:Garryowen
M:6/8
L:1/8
Z:abc2nwc
K:D
(dc)|BAG FED|FGF Fdc|BAG FED|EFE Edc|
BAG FED|FGF F2A|ABc dAF|(E3E):|
|:(FG)|A2F A2F|A2A Adc|B2G B2G|B2B B2c|
d2e f2e|dcB A2A|ABc dAF|(E3E):|
